src/basic/900/u1F5D9-close.svg

<svg width="6" height="8" viewBox="0 0 6 8" fill="none" xmlns="http://www.w3.org/2000/svg">
<path fill-rule="evenodd" clip-rule="evenodd" d="M3.00001,5.2071l-2.14647,2.14647l-0.70711,-0.70711l2.14647,-2.14646l-2.14645,-2.14645l0.70711,-0.70711l2.14645,2.14645l2.14644,-2.14644l0.70711,0.70711l-2.14645,2.14644l2.14645,2.14644l-0.70711,0.70711z" fill="black"/>
</svg>

<svg width="6" height="8" viewBox="0 0 6 8" fill="none" xmlns="http://www.w3.org/2000/svg">
<path fill-rule="evenodd" clip-rule="evenodd" d="M3.00001 5.2071L0.85354 7.35357L0.146433 6.64646L2.2929 4.5L0.146452 2.35355L0.853558 1.64644L3.00001 3.79289L5.14645 1.64645L5.85356 2.35356L3.70711 4.5L5.85356 6.64644L5.14645 7.35355L3.00001 5.2071Z" fill="black"/>
</svg>
